X:1
T:The Two Brothers
M:4/4
L:1/4
K:G
 G G B d| e d d2| G G B B| A3 z| A A F G| A A F3/2 F/2| D D E F| G3 z|\
